src/images/svg/filter.svg

<svg width="20" height="21" viewBox="0 0 20 21" fill="none" xmlns="http://www.w3.org/2000/svg">
<path d="M19 10.4995H6.97892M2.73578 10.4995H1M2.73578 10.4995C2.73578 9.90733 2.95925 9.33943 3.35703 8.92072C3.75481 8.502 4.29432 8.26677 4.85687 8.26677C5.41941 8.26677 5.95892 8.502 6.3567 8.92072C6.75448 9.33943 6.97795 9.90733 6.97795 10.4995C6.97795 11.0916 6.75448 11.6595 6.3567 12.0783C5.95892 12.497 5.41941 12.7322 4.85687 12.7322C4.29432 12.7322 3.75481 12.497 3.35703 12.0783C2.95925 11.6595 2.73578 11.0916 2.73578 10.4995ZM19 17.2663H13.4074M13.4074 17.2663C13.4074 17.8585 13.1833 18.4271 12.7855 18.8459C12.3876 19.2647 11.848 19.5 11.2853 19.5C10.7228 19.5 10.1832 19.2637 9.78547 18.845C9.38769 18.4263 9.16422 17.8584 9.16422 17.2663M13.4074 17.2663C13.4074 16.674 13.1833 16.1065 12.7855 15.6876C12.3876 15.2688 11.848 15.0335 11.2853 15.0335C10.7228 15.0335 10.1832 15.2688 9.78547 15.6875C9.38769 16.1062 9.16422 16.6741 9.16422 17.2663M9.16422 17.2663H1M19 3.73272H15.9789M11.7358 3.73272H1M11.7358 3.73272C11.7358 3.14056 11.9593 2.57266 12.357 2.15395C12.7548 1.73523 13.2943 1.5 13.8569 1.5C14.1354 1.5 14.4112 1.55775 14.6686 1.66996C14.9259 1.78216 15.1597 1.94662 15.3567 2.15395C15.5537 2.36127 15.7099 2.60741 15.8165 2.87829C15.9231 3.14918 15.9779 3.43951 15.9779 3.73272C15.9779 4.02592 15.9231 4.31626 15.8165 4.58714C15.7099 4.85803 15.5537 5.10416 15.3567 5.31149C15.1597 5.51881 14.9259 5.68327 14.6686 5.79548C14.4112 5.90768 14.1354 5.96543 13.8569 5.96543C13.2943 5.96543 12.7548 5.7302 12.357 5.31149C11.9593 4.89277 11.7358 4.32487 11.7358 3.73272Z" stroke="black" stroke-width="1.5" stroke-miterlimit="10" stroke-linecap="round"/>
</svg>

<svg width="20" height="21" fill="none" xmlns="http://www.w3.org/2000/svg"><path d="M19 10.5H6.98m-4.24 0H1m1.74 0c0-.6.22-1.16.62-1.58.4-.42.93-.65 1.5-.65.56 0 1.1.23 1.5.65.4.42.62.99.62 1.58 0 .6-.23 1.16-.62 1.58-.4.42-.94.65-1.5.65-.57 0-1.1-.23-1.5-.65a2.3 2.3 0 0 1-.62-1.58ZM19 17.27h-5.6m0 0c0 .59-.22 1.16-.61 1.58-.4.41-.94.65-1.5.65-.57 0-1.1-.24-1.5-.66a2.3 2.3 0 0 1-.63-1.57m4.25 0c0-.6-.23-1.16-.62-1.58-.4-.42-.94-.66-1.5-.66-.57 0-1.1.24-1.5.66-.4.42-.63.98-.63 1.58m0 0H1M19 3.73h-3.02m-4.24 0H1m10.74 0c0-.59.22-1.16.62-1.58a2.07 2.07 0 0 1 2.3-.48 2.12 2.12 0 0 1 1.16 1.2 2.33 2.33 0 0 1-.46 2.44 2.12 2.12 0 0 1-1.5.66c-.57 0-1.1-.24-1.5-.66a2.3 2.3 0 0 1-.62-1.58Z" stroke="#000" stroke-width="1.5" stroke-miterlimit="10" stroke-linecap="round"/></svg>
